svg/alpha_f_box_outline.svg

<svg xmlns="http://www.w3.org/2000/svg" viewBox="0 0 24 24"><path d="M9 7h6v2h-4v2h3v2h-3v4H9zM3 5a2 2 0 0 1 2-2h14a2 2 0 0 1 2 2v14a2 2 0 0 1-2 2H5a2 2 0 0 1-2-2zm2 0v14h14V5z"/></svg>

<?xml version="1.0" encoding="UTF-8"?><!DOCTYPE svg PUBLIC "-//W3C//DTD SVG 1.1//EN" "http://www.w3.org/Graphics/SVG/1.1/DTD/svg11.dtd"><svg xmlns="http://www.w3.org/2000/svg" xmlns:xlink="http://www.w3.org/1999/xlink" version="1.1" id="mdi-alpha-f-box-outline" width="24" height="24" viewBox="0 0 24 24"><path d="M9,7H15V9H11V11H14V13H11V17H9V7M3,5A2,2 0 0,1 5,3H19A2,2 0 0,1 21,5V19A2,2 0 0,1 19,21H5C3.89,21 3,20.1 3,19V5M5,5V19H19V5H5Z" /></svg>
